src/assets/duotone/House2.svg

<svg width="24" height="24" viewBox="0 0 24 24"  xmlns="http://www.w3.org/2000/svg">
<path d="M22.75 22C22.75 22.41 22.41 22.75 22 22.75H2C1.59 22.75 1.25 22.41 1.25 22C1.25 21.58 1.59 21.25 2 21.25H22C22.41 21.25 22.75 21.58 22.75 22Z" />
<path opacity="0.4" d="M21.0002 9.97968V21.2497H2.9502L3.0002 9.96968C3.0002 9.35967 3.28019 8.77973 3.7702 8.39973L10.7702 2.95973C11.4902 2.38973 12.5102 2.38973 13.2302 2.95973L20.2302 8.39973C20.7202 8.77973 21.0002 9.35968 21.0002 9.97968Z" />
<path d="M13.5 8.25H10.5C10.09 8.25 9.75 7.91 9.75 7.5C9.75 7.09 10.09 6.75 10.5 6.75H13.5C13.91 6.75 14.25 7.09 14.25 7.5C14.25 7.91 13.91 8.25 13.5 8.25Z" />
<path d="M15.5 11H8.5C7.67 11 7 11.67 7 12.5V22H17V12.5C17 11.67 16.33 11 15.5 11ZM10.75 17.75C10.75 18.16 10.41 18.5 10 18.5C9.59 18.5 9.25 18.16 9.25 17.75V16.25C9.25 15.84 9.59 15.5 10 15.5C10.41 15.5 10.75 15.84 10.75 16.25V17.75Z" />
</svg>

<?xml version="1.0" encoding="UTF-8"?>
<svg width="24" height="24" viewBox="0 0 24 24" xmlns="http://www.w3.org/2000/svg">
 <path d="m22.75 22c0 0.41-0.34 0.75-0.75 0.75h-20c-0.41 0-0.75-0.34-0.75-0.75 0-0.42 0.34-0.75 0.75-0.75h20c0.41 0 0.75 0.33 0.75 0.75z"/>
 <path d="m21 9.9797v11.27h-18.05l0.05-11.28c0-0.61001 0.27999-1.19 0.77-1.57l7-5.44c0.72-0.57 1.74-0.57 2.46 0l7 5.44c0.49 0.38 0.77 0.95995 0.77 1.58z" opacity=".4"/>
 <path d="m13.5 8.25h-3c-0.41 0-0.75-0.34-0.75-0.75s0.34-0.75 0.75-0.75h3c0.41 0 0.75 0.34 0.75 0.75s-0.34 0.75-0.75 0.75z"/>
 <path d="m15.5 11h-7c-0.83 0-1.5 0.67-1.5 1.5v9.5h10v-9.5c0-0.83-0.67-1.5-1.5-1.5zm-4.75 6.75c0 0.41-0.34 0.75-0.75 0.75s-0.75-0.34-0.75-0.75v-1.5c0-0.41 0.34-0.75 0.75-0.75s0.75 0.34 0.75 0.75v1.5z"/>
</svg>
